X:1
T:Fox On The Town
C:Finbar Dwyer
Z:Robin Beech robin.beech@mcgill.ca
N:Transcribed from Joanie Madden's Song of the Irish Whistle
N:Slightly different from other versions I've found on the net
L:1/8
R:reel
M:4/4
K:G
gedB eBdB | G3BD G(3Bcd | gedB eeef | g2fg efga |
beee edBA | GDGB dG(3Bcd | efgb agfa | g2af g4 ::
bee2 bage | dBB2 dega | bee2 bage | degb a4 |
g3e dedB | GBdg edBd | efgb agfa | gbaf g4 :|
